!!!!SEGMENT: pl-lzu--m-15111--001-039_noskowski-zygmunt--spiewnik-dla-dzieci-op-34-39-deszczyk.krn
!!!cenid: 18xx:4736
!!!COM: Noskowski, Zygmunt
!!!COM-rismID: pe106604
!!!CDT: 1846/05/02-1909/07/23
!!!CNT: Polish
!!!GTL: Śpiewnik dla dzieci, op. 34
!!!OTL: 39. Deszczyk
!!!OMV: 039
!!!PDT: 1890
!!!AGN: Secular; Song; Children
!!!YEC: Copyright 2022 Narodowy Instytut Fryderyka Chopina (https://polishscores.org)
!!!YEM: License CC-BY-4.0 (https://creativecommons.org/licenses/by/4.0)
!!!SMS-siglum: PL-LŹu
!!!SMS-shelfmark: M 15111
!!!SMS-variant:
!!!SMS-altvar:
!!!SMS-shelfwork: 001-039 G
!!!NIFC-rismSourceID: 1001234040
!!!NIFC-rismChildID: 1001234040
!!!NIFC-islandoraID: pl-lzu:5455
!!!URL-pdf-islandora: https://repozytorium.nifc.pl/islandora/object/pl-lzu%3A5455/datastream/PDF/view
!!!URL-scan: https://polish.musicsources.pl/pl/lokalizacje/galeria/druki-muzyczne/23228/48 @EN{Scan on Polish Music Sources Website} @PL{Skany w portalu Dziedzictwo Muzyki Polskiej w otwartym dostępie}
!!!IIIF:
!!!ONB-nifc:
!!!AIN: 1 piano 1 vox
!!!key: A
!!!OMD: Allegretto animato.
**kern	**kern	**dynam	**kern	**text	**text	**text	**dynam
*part2	*part2	*part2	*part1	*part1	*part1	*part1	*part1
*staff3	*staff2	*staff2/3	*staff1	*staff1	*staff1	*staff1	*staf1
*I"[Piano]	*I"[Piano]	*	*I"[Voice]	*	*	*	*
*I'pf	*I'pf	*	*I'V	*	*	*	*
*Ipiano	*Ipiano	*	*Ivox	*	*	*	*
*ICklav	*ICklav	*	*ICvox	*	*	*	*
*IGacmp	*IGacmp	*	*IGsolo	*	*	*	*
*>[A,A,A]	*>[A,A,A]	*>[A,A,A]	*>[A,A,A]	*>[A,A,A]	*>[A,A,A]	*>[A,A,A]	*>[A,A,A]
*>A	*>A	*>A	*>A	*>A	*>A	*>A	*>A
*clefF4	*clefG2	*	*clefG2	*	*	*	*
*k[f#c#g#]	*k[f#c#g#]	*	*k[f#c#g#]	*	*	*	*
*A:	*A:	*	*A:	*	*	*	*
*M3/4	*M3/4	*	*M3/4	*	*	*	*
=1	=1	=1	=1	=1	=1	=1	=1
!	!LO:TX:a:i:t=Żwawo i z życiem.	!	!	!	!	!	!
(8D#X\L	(8d#X/L	p	2.r	.	.	.	.
8F#\	8f#/	.	.	.	.	.	.
8E\	8e/	.	.	.	.	.	.
8D#\J)	8d#/J)	.	.	.	.	.	.
4E^\	4e^/	.	.	.	.	.	.
=2	=2	=2	=2	=2	=2	=2	=2
(8D#X\L	(8d#X/L	.	2.r	.	.	.	.
8F#\	8f#/	.	.	.	.	.	.
8E\	8e/	.	.	.	.	.	.
8D#\J)	8d#/J)	.	.	.	.	.	.
4E^\	4e^/	.	.	.	.	.	.
=3	=3	=3	=3	=3	=3	=3	=3
(8D#X\L	(>8d#X/L	.	2.r	.	.	.	.
8F#\	8f#/	.	.	.	.	.	.
8E\	8e/	<	.	.	.	.	.
8D#\	8d#/	.	.	.	.	.	.
8E\	8e/	.	.	.	.	.	.
8F#\J	8f#/J	.	.	.	.	.	.
=4	=4	=4	=4	=4	=4	=4	=4
8D#X\L	8d#X/L	.	2.r	.	.	.	.
8E\	8e/	.	.	.	.	.	.
8F#\	8f#/	.	.	.	.	.	.
8G#\	8g#/	[	.	.	.	.	.
8A\	8a/	.	.	.	.	.	.
8B\J)	8b/J)	.	.	.	.	.	.
=5	=5	=5	=5	=5	=5	=5	=5
*	*	*	*	*v:1	*v:2	*v:3	*
!	!	!	!	!	!	!	!LO:DY:rj
4A\	8cc#L 8a 8e/	f	8cc#\	Mój	Bo-	Spoj-	f
.	8dd/J	.	8dd\	de-	-kiem	-rzę	.
4A\	4b 4g# 4d/	.	4b\	-szczy-	bo-	w gó-	.
4A\	4b 4g# 4d/	.	4b\	-ku,	-kiem,	-rę,	.
!!LO:PB:g=original
=6	=6	=6	=6	=6	=6	=6	=6
*	*	*	*	*v:1	*v:2	*v:3	*
4c# 4A\	(8aL 8e/	.	8a/	mój	za	kla-	.
.	8b/J)	.	8b/	ko-	o-	-snę	.
4B 4E\	4g# 4e/	.	4g#/	-cha-	-bło-	z ba-	.
4B 4E\	4g# 4e/	.	4g#/	-ny,	-kiem,	-ta,	.
=7	=7	=7	=7	=7	=7	=7	=7
8AL 8F#\	8f#L 8d/	.	8f#/	Nie	I-	Już	.
8BJ 8G#\	8eJ 8d/	.	8e/	pa-	-dzie	i	.
4A 4F#\	4f# 4d/	.	4f#/	-daj-	chmur-	chmur-	.
4B 4E\	4g# 4e/	.	4g#/	-że	-ka	-ka	.
=8	=8	=8	=8	=8	=8	=8	=8
8AL 8C#\	8aL 8e/	.	8a/	na	raź-	się	.
8BJ 8D\	8g#J 8e/	.	8g#/	te	-nym	roz-	.
4A 4C#\	4a 4e/	.	4a/	ła-	kro-	-la-	.
4G# 4BB\	4b 4e/	.	4b/	-ny,	-kiem,	-ta,	.
!!LO:LB:g=original
=9	=9	=9	=9	=9	=9	=9	=9
*	*	*	*	*v:1	*v:2	*v:3	*
4A 4AA\	(8cc#L 8e/	.	8cc#\	Nie	A	Ja-	.
.	8dd/J)	.	8dd\	pa-	my	-sne	.
4G# 4D\	4b 4e/	.	4b\	-daj-	chmur-	nie-	.
4G# 4D\	4b 4e/	.	4b\	-że	-kę	-bo	.
=10	=10	=10	=10	=10	=10	=10	=10
4A 4C#\	(8aL 8e/	.	8a/	na	wy-	nad	.
.	8b/J)	.	8b/	te	-prze-	gło-	.
4B 4BB\	4g# 4d/	.	4g#/	ko-	-dzi-	-wa-	.
4B 4BB\	4g# 4d/	.	4g#/	-py,	-my,	-mi,	.
=11	=11	=11	=11	=11	=11	=11	=11
4A 4E\	4.f# 4.d/	.	4.f#/	Bo	Wszyst-	Bia-	.
4G# 4E\	.	.	.	.	.	.	.
.	(8e/L	.	8e/	my	-kie	-łe	.
4r	8d#X/	.	8d#X/	dzi-	sno-	py-	.
.	8e/J	.	8e/	-siaj	-py	-ły	.
=12	=12	=12	=12	=12	=12	=12	=12
4r	8f#/L	.	8f#/	zwo-	po-	za	.
.	8g#/J	.	8g#/	-zim	-zwo-	wo-	.
4A 4C#\	8aL 8e/	.	(8a/L	sno-	-zi-	-za-	.
.	8b/	.	8b/J)	.	.	.	.
4A 4AA\	8cc# 8e/	.	(8cc#\L	-py.	-my.	-mi.	.
.	8dd/J)	.	8dd\J)	.	.	.	.
!!LO:LB:g=original
=13	=13	=13	=13	=13	=13	=13	=13
*ped	*	*	*	*v:1.2.3.	*	*	*
!	!	!LO:DY:rj	!	!	!	!	!
(8GG#/L	4.ee 4.b\	f	2.ee\	Wio,	.	.	.
8E/J	.	.	.	.	.	.	.
4B\)	.	.	.	.	.	.	.
.	(8e/	.	.	.	.	.	.
*Xped	*	*	*	*	*	*	*
4r	4ee 4b\)	.	.	.	.	.	.
=14	=14	=14	=14	=14	=14	=14	=14
*ped	*	*	*	*	*	*	*
(8AA/L	4.cc# 4.a/	.	2.cc#\	wio,	.	.	.
8E/J	.	.	.	.	.	.	.
4A\)	.	.	.	.	.	.	.
.	(>8c#/	.	.	.	.	.	.
*Xped	*	*	*	*	*	*	*
4r	4cc# 4a/)	.	.	.	.	.	.
=15	=15	=15	=15	=15	=15	=15	=15
4d 4E\	(<8bL 8g#/	.	8b\	wio,	.	.	.
.	8cc#/J	.	8cc#\	ko-	.	.	.
4r	8dd\)	.	4dd\	-ni-	.	.	.
.	8r	.	.	.	.	.	.
4B 4E\	(8f#L 8d/	.	(8f#/L	-ki,	.	.	.
.	8g#/J)	.	8g#/J)	.	.	.	.
=16	=16	=16	=16	=16	=16	=16	=16
4c# 4A\	4a 4e/	.	4a/	wio!	.	.	.
8AA/L	(8c#/L	.	4r	.	.	.	.
(8BB/J	8d/J	.	.	.	.	.	.
8C#/)	8e'/)	.	4r	.	.	.	.
8r	8r	.	.	.	.	.	.
!!LO:PB:g=original
=17	=17	=17	=17	=17	=17	=17	=17
*ped	*	*	*	*v:1.2.3.	*	*	*
(8C#\L	4cc# 4e#X/	p	2.cc#\	Wio,	.	.	p
8G#\J)	.	.	.	.	.	.	.
4r	(<8c#/L	.	.	.	.	.	.
.	8e#/J	.	.	.	.	.	.
*Xped	*	*	*	*	*	*	*
4r	8cc#'\)	.	.	.	.	.	.
.	8r	.	.	.	.	.	.
=18	=18	=18	=18	=18	=18	=18	=18
*ped	*	*	*	*	*	*	*
(8BB\L	4f# 4d 4A/	.	2.f#/	wio,	.	.	.
8F#\J)	.	.	.	.	.	.	.
4r	(8A/L	.	.	.	.	.	.
.	8d/J	.	.	.	.	.	.
*Xped	*	*	*	*	*	*	*
4r	8f#/)	.	.	.	.	.	.
.	8r	.	.	.	.	.	.
=19	=19	=19	=19	=19	=19	=19	=19
4d 4G# 4E\	(8e/L	f	8e/	wio,	.	.	p
.	8g#/J	.	8g#/	ko-	.	.	.
4r	8b\L	.	(8b\L	-ni-	.	.	.
.	8dd\J	.	8dd\J)	.	.	.	.
4d 4G# 4E\	8b\L	.	(8b\L	-ki	.	.	.
.	8cc#\J)	.	8cc#\J)	.	.	.	.
=20	=20	=20	=20	=20	=20	=20	=20
8c# 8A\	8a/	.	4a/	wio!	.	.	.
8r	8r	.	.	.	.	.	.
4A 4E 4AA^\	4aa 4cc# 4a^\	.	4r	.	.	.	.
4r	4r	.	4r	.	.	.	.
=:|!	=:|!	=:|!	=:|!	=:|!	=:|!	=:|!	=:|!
*-	*-	*-	*-	*-	*-	*-	*-
!!!system-decoration: p1{p2}
!!!RDF**kern: > = above
!!!RDF**kern: < = below
!!!ENC: Andrzej Gręziak
!!!END: 2025-03-06
!!!ENC: Marta Lawrence
!!!END: 2025-03-22
